X:160
T:Cumberland Reel
C:Traditional English
S:Colin Hume's website,  colinhume.com  - chords can also be printed below the stave.
Q:3/8=120
M:6/8
L:1/8
K:D
P:A
|: A | "D"f2e d2c | "G"d2B "D"A2F | "Em"GFG "A7"EFG | "D"F2G A2A |\
"G"B2G d2B | "D"A2F "Bm"d2d | "A7"cde ABc | "D"d3- d2 :|
P:B
e | "D"f2f fde | "D/C#"f2f fde | "Bm"f2f g2f | "A7"e2e e2c |\
"Bm"d2d dBc | "Bm/A"d2d dBc | "E7/C#"d2B e2d | "A"c2B "A7"ABc |
"D"d2d cBA | "G"B2c "D"d2A | "D"ded cBA | "G"B2c "D"d2f |\
"Em"e2e e2e | "/"e2e efg | "A7"a2A ABc | "D"d3- d2 |]

